agir/groups/components/messages/promo-message2.svg

<svg width="280" height="192" viewBox="0 0 280 192" fill="none" xmlns="http://www.w3.org/2000/svg">
<path opacity="0.1" d="M197.923 10.7252C187.815 10.2356 177.533 10.3176 167.773 12.7312C158.012 15.1449 148.73 20.1124 143.175 27.7308C139.995 32.0922 138.097 37.1999 134.393 41.2118C127.968 48.168 117.466 50.558 107.774 52.9565C85.0145 58.5646 62.1278 66.6684 45.6188 81.8491C43.2487 84.0255 40.9389 86.5081 40.4023 89.5171C39.5793 94.1438 43.2034 98.4729 47.224 101.434C51.2446 104.396 56.0021 106.745 58.9776 110.586C62.772 115.485 62.9853 121.958 61.908 127.842C60.8307 133.726 58.6135 139.451 58.0296 145.4C57.8852 146.867 57.8508 148.396 58.4864 149.753C59.3289 151.551 61.2013 152.772 63.037 153.799C69.5455 157.456 76.5685 160.108 83.8682 161.666C96.445 164.364 109.56 163.857 122.437 164.966C135.313 166.074 148.723 169.176 157.773 177.489C163.323 182.586 168.331 190.021 176.245 189.769C180.679 189.628 184.596 186.915 189.02 186.613C193.999 186.272 198.5 188.986 203.195 190.532C209.864 192.732 217.586 192.519 223.839 189.486C230.092 186.453 234.632 180.513 234.998 174.128C235.356 167.873 231.969 162.021 230.012 156.01C223.596 136.315 232.621 115.502 241.596 96.633C250.57 77.7638 259.83 57.1065 253.86 37.2969C246.928 14.3209 220.079 11.7994 197.923 10.7252Z" fill="#6C63FF"/>
<path d="M138.969 82.8921L170.677 21.9714H214.62" stroke="url(#paint0_linear)" stroke-width="2" stroke-linejoin="round" stroke-dasharray="4 4"/>
<path d="M175.546 116.036L187.917 153.55H228.977" stroke="url(#paint1_linear)" stroke-width="2" stroke-linejoin="round" stroke-dasharray="4 4"/>
<path d="M100.517 83.0169L65.8125 41.446" stroke="url(#paint2_linear)" stroke-width="2" stroke-dasharray="4 4"/>
<path d="M116.747 108.359L72.6777 99.0586H36.4146" stroke="url(#paint3_linear)" stroke-width="2" stroke-linejoin="round" stroke-dasharray="4 4"/>
<path d="M122.925 116.536L59.6953 178.767" stroke="url(#paint4_linear)" stroke-width="2" stroke-dasharray="4 4"/>
<path d="M204.509 85.675H93.6738V121.468H97.8053V130.829L107.17 121.468H204.509V85.675Z" fill="#F4ED0F"/>
<path d="M200.477 81.5188H91.4058V117.312H95.5373V126.673L104.902 117.312H200.477V81.5188Z" fill="url(#paint5_linear)"/>
<path d="M197.441 85.2974H94.4297V113.932H197.441V85.2974Z" fill="white"/>
<path d="M159.444 90.7131H116.731V92.2245H159.444V90.7131Z" fill="#571AFF"/>
<path d="M190.691 94.9956H116.731V96.633H190.691V94.9956Z" fill="#E6E6E6"/>
<path d="M190.691 100.033H116.731V101.671H190.691V100.033Z" fill="#E6E6E6"/>
<path d="M144.45 105.028H117.361V106.665H144.45V105.028Z" fill="#E6E6E6"/>
<path d="M110.49 107.038C108.331 107.527 106.098 107.391 104.041 106.645C101.984 105.898 100.185 104.572 98.845 102.813C99.3821 102.333 99.9825 101.935 100.627 101.631C101.623 101.16 102.705 100.926 103.789 100.949C104.874 100.972 105.933 101.251 106.884 101.764C107.835 102.278 108.654 103.012 109.276 103.91C109.899 104.808 110.31 105.847 110.477 106.946C110.481 106.976 110.486 107.007 110.49 107.038Z" fill="#F4ED0F"/>
<path d="M108.163 101.215C109.764 101.215 111.061 99.8894 111.061 98.2548C111.061 96.6201 109.764 95.2949 108.163 95.2949C106.563 95.2949 105.265 96.6201 105.265 98.2548C105.265 99.8894 106.563 101.215 108.163 101.215Z" fill="#2F2E41"/>
<path d="M105.389 105.736C103.691 105.735 102.051 105.119 100.768 104.001C99.4859 102.883 98.6474 101.338 98.4067 99.6488C98.1661 97.9596 98.5394 96.2398 99.4582 94.8049C100.377 93.37 101.78 92.3161 103.409 91.8367C105.038 91.3573 106.785 91.4844 108.328 92.1947C109.872 92.9051 111.109 94.151 111.812 95.704C112.516 97.257 112.639 99.0129 112.159 100.65C111.679 102.286 110.627 103.694 109.198 104.615C108.061 105.348 106.739 105.737 105.389 105.736ZM105.389 91.7043C104.024 91.7042 102.689 92.1109 101.554 92.8732C100.419 93.6355 99.5346 94.719 99.0121 95.9867C98.4897 97.2544 98.3529 98.6493 98.6192 99.9951C98.8855 101.341 99.5428 102.577 100.508 103.547C101.473 104.518 102.703 105.178 104.042 105.446C105.381 105.714 106.769 105.576 108.03 105.051C109.291 104.526 110.369 103.637 111.127 102.496C111.886 101.355 112.29 100.013 112.29 98.6412C112.288 96.802 111.56 95.0388 110.267 93.7384C108.973 92.4379 107.219 91.7064 105.389 91.7043Z" fill="#3F3D56"/>
<path d="M187.205 0H241.978C242.956 0.824036 243.397 1.3885 243.397 3.55159H243.343L243.273 34.3623C243.272 34.7854 243.188 35.2042 243.025 35.5947C242.861 35.9852 242.623 36.3398 242.322 36.6382C242.022 36.9366 241.666 37.173 241.274 37.334C240.882 37.4949 240.462 37.5772 240.038 37.5761L214.3 37.5184L189.837 37.4648H188.566C188.142 37.4637 187.723 37.3793 187.332 37.2164C186.941 37.0535 186.586 36.8153 186.287 36.5153C185.988 36.2154 185.751 35.8596 185.59 35.4682C185.429 35.0769 185.347 34.6577 185.348 34.2346V32.9202L185.414 3.3703H185.443C185.451 1.21133 186.227 0.824036 187.205 0Z" fill="#777777"/>
<path opacity="0.2" d="M188.328 3.88916L240.304 4.00725L240.239 32.6428C240.238 32.8699 240.193 33.0946 240.106 33.3042C240.018 33.5138 239.891 33.7041 239.73 33.8643C239.569 34.0245 239.379 34.1514 239.169 34.2378C238.96 34.3242 238.735 34.3684 238.508 34.3679L190.18 34.2581C189.675 34.2569 189.191 34.055 188.835 33.6965C188.479 33.3381 188.279 32.8527 188.28 32.3469L188.345 3.8892L188.328 3.88916Z" fill="white"/>
<path d="M188.302 3.90894L188.244 30.1575C188.243 30.6871 188.346 31.2117 188.548 31.7014C188.75 32.1911 189.047 32.6363 189.421 33.0116C189.795 33.3868 190.24 33.6848 190.73 33.8884C191.219 34.0921 191.744 34.1975 192.275 34.1986L236.219 34.2976" fill="#F5F5F5"/>
<path d="M240.249 3.90894L240.191 30.2599C240.19 30.7912 240.085 31.3171 239.881 31.8076C239.678 32.2981 239.38 32.7435 239.004 33.1184C238.629 33.4934 238.184 33.7905 237.694 33.9928C237.204 34.1951 236.68 34.2987 236.15 34.2976L192.273 34.1982" fill="white"/>
<path d="M43.7345 32.1455H77.3639C77.9643 32.6506 78.2353 32.9966 78.2353 34.3225H78.2024L78.1593 53.2081C78.1587 53.4675 78.1068 53.7242 78.0066 53.9635C77.9064 54.2029 77.7599 54.4202 77.5755 54.6031C77.3911 54.7861 77.1723 54.931 76.9317 55.0296C76.6911 55.1283 76.4334 55.1787 76.1732 55.178L60.3705 55.1427L45.3505 55.1098H44.5702C44.3101 55.1092 44.0526 55.0574 43.8125 54.9576C43.5724 54.8577 43.3544 54.7117 43.1709 54.5278C42.9874 54.344 42.842 54.1259 42.7431 53.886C42.6442 53.6461 42.5936 53.3892 42.5942 53.1298V52.3242L42.6348 34.2114H42.6525C42.6576 32.888 43.1341 32.6506 43.7345 32.1455Z" fill="#777777"/>
<path opacity="0.2" d="M44.4238 34.5293L76.3356 34.6017L76.2958 52.1541C76.2955 52.2932 76.2677 52.431 76.2142 52.5594C76.1606 52.6879 76.0823 52.8046 75.9836 52.9028C75.8849 53.0009 75.7679 53.0787 75.6392 53.1317C75.5104 53.1847 75.3725 53.2118 75.2333 53.2115L45.5609 53.1441C45.2508 53.1434 44.9537 53.0196 44.7349 52.7999C44.5162 52.5802 44.3937 52.2827 44.3944 51.9727L44.434 34.5293L44.4238 34.5293Z" fill="white"/>
<path d="M44.4081 34.5415L44.3726 50.6307C44.3719 50.9553 44.4354 51.2769 44.5594 51.5771C44.6834 51.8773 44.8655 52.1501 45.0954 52.3802C45.3252 52.6102 45.5982 52.7928 45.8989 52.9176C46.1995 53.0425 46.5219 53.1071 46.8475 53.1077L73.8286 53.1685" fill="#F5F5F5"/>
<path d="M76.3023 34.5415L76.2668 50.6935C76.2661 51.0192 76.2014 51.3415 76.0764 51.6422C75.9513 51.9428 75.7683 52.2158 75.5379 52.4457C75.3075 52.6755 75.0342 52.8576 74.7335 52.9816C74.4328 53.1056 74.1107 53.1691 73.7855 53.1685L46.8462 53.1075" fill="white"/>
<path d="M57.6683 147.932H102.723C103.528 148.609 103.891 149.072 103.891 150.847H103.847L103.789 176.13C103.788 176.477 103.719 176.821 103.585 177.141C103.45 177.462 103.254 177.753 103.007 177.998C102.76 178.242 102.467 178.436 102.144 178.569C101.822 178.701 101.477 178.768 101.128 178.767L79.9564 178.72L59.8333 178.676H58.788C58.4394 178.675 58.0945 178.606 57.7728 178.472C57.4511 178.338 57.159 178.143 56.9132 177.897C56.6674 177.651 56.4726 177.359 56.3401 177.038C56.2075 176.716 56.1397 176.372 56.1406 176.025V174.947L56.1949 150.698H56.2187C56.2255 148.926 56.8639 148.609 57.6683 147.932Z" fill="#777777"/>
<path opacity="0.2" d="M58.5923 151.124L101.346 151.221L101.293 174.719C101.292 174.905 101.255 175.09 101.184 175.262C101.112 175.434 101.007 175.59 100.875 175.721C100.742 175.853 100.586 175.957 100.413 176.028C100.241 176.099 100.056 176.135 99.8694 176.135L60.1157 176.044C59.7002 176.044 59.3022 175.878 59.0091 175.584C58.716 175.29 58.5519 174.891 58.5528 174.476L58.6059 151.124L58.5923 151.124Z" fill="white"/>
<path d="M58.5706 151.14L58.523 172.68C58.5221 173.114 58.6071 173.545 58.7733 173.947C58.9394 174.348 59.1834 174.714 59.4913 175.022C59.7992 175.33 60.165 175.574 60.5678 175.741C60.9706 175.908 61.4025 175.995 61.8388 175.996L97.9869 176.077" fill="#F5F5F5"/>
<path d="M101.301 151.14L101.254 172.764C101.253 173.2 101.166 173.631 100.999 174.034C100.831 174.436 100.586 174.802 100.277 175.109C99.9686 175.417 99.6024 175.661 99.1996 175.827C98.7967 175.993 98.3651 176.078 97.9295 176.077L61.8374 175.995" fill="white"/>
<path d="M19.8906 90.6321H46.1581C46.627 91.0277 46.8388 91.2987 46.8388 92.3371H46.813L46.7794 107.128C46.7789 107.331 46.7383 107.532 46.6601 107.72C46.5819 107.907 46.4674 108.078 46.3234 108.221C46.1793 108.364 46.0085 108.478 45.8205 108.555C45.6326 108.632 45.4313 108.672 45.2281 108.671L32.8847 108.643L21.1529 108.618H20.5434C20.3402 108.617 20.1391 108.577 19.9516 108.498C19.764 108.42 19.5937 108.306 19.4504 108.162C19.3071 108.018 19.1936 107.847 19.1163 107.659C19.039 107.471 18.9995 107.27 19 107.067V106.436L19.0317 92.25H19.0455C19.0495 91.2136 19.4217 91.0277 19.8906 90.6321Z" fill="#777777"/>
<path opacity="0.2" d="M20.4292 92.499L45.3551 92.5557L45.3239 106.303C45.3237 106.412 45.302 106.52 45.2602 106.62C45.2183 106.721 45.1571 106.812 45.0801 106.889C45.003 106.966 44.9116 107.027 44.811 107.068C44.7105 107.11 44.6028 107.131 44.494 107.131L21.3173 107.078C21.0751 107.078 20.8431 106.981 20.6722 106.809C20.5013 106.636 20.4057 106.403 20.4062 106.161L20.4371 92.499L20.4292 92.499Z" fill="white"/>
<path d="M20.4169 92.5085L20.3892 105.11C20.3886 105.364 20.4382 105.616 20.5351 105.851C20.632 106.086 20.7742 106.3 20.9537 106.48C21.1332 106.66 21.3465 106.803 21.5813 106.901C21.8162 106.998 22.0679 107.049 22.3223 107.05L43.3969 107.097" fill="#F5F5F5"/>
<path d="M45.329 92.5085L45.3013 105.159C45.3008 105.414 45.2502 105.666 45.1526 105.902C45.0549 106.137 44.912 106.351 44.732 106.531C44.552 106.711 44.3385 106.854 44.1037 106.951C43.8688 107.048 43.6172 107.098 43.3632 107.097L22.3213 107.049" fill="white"/>
<path d="M204.118 141.254H258.891C259.869 142.076 260.311 142.64 260.311 144.799H260.257L260.187 175.559C260.186 175.981 260.101 176.399 259.938 176.789C259.775 177.179 259.536 177.533 259.236 177.831C258.936 178.129 258.579 178.365 258.187 178.526C257.796 178.686 257.376 178.768 256.952 178.767L231.214 178.71L206.75 178.656H205.48C205.056 178.655 204.636 178.571 204.245 178.408C203.854 178.246 203.499 178.008 203.2 177.708C202.902 177.409 202.665 177.054 202.504 176.663C202.343 176.272 202.26 175.854 202.261 175.431V174.119L202.327 144.618H202.356C202.364 142.463 203.14 142.076 204.118 141.254Z" fill="#777777"/>
<path opacity="0.2" d="M205.242 145.136L257.217 145.254L257.152 173.842C257.152 174.069 257.107 174.293 257.019 174.502C256.932 174.712 256.804 174.902 256.644 175.062C256.483 175.221 256.292 175.348 256.083 175.434C255.873 175.521 255.648 175.565 255.422 175.564L207.094 175.455C206.589 175.454 206.105 175.252 205.748 174.894C205.392 174.536 205.193 174.052 205.194 173.547L205.258 145.136L205.242 145.136Z" fill="white"/>
<path d="M205.215 145.156L205.157 171.361C205.156 171.89 205.26 172.413 205.462 172.902C205.664 173.391 205.96 173.836 206.334 174.21C206.709 174.585 207.153 174.882 207.643 175.086C208.133 175.289 208.658 175.394 209.188 175.395L253.133 175.494" fill="#F5F5F5"/>
<path d="M257.163 145.156L257.105 171.463C257.104 171.994 256.999 172.519 256.795 173.008C256.591 173.498 256.293 173.943 255.918 174.317C255.543 174.691 255.097 174.988 254.608 175.19C254.118 175.392 253.593 175.495 253.064 175.494L209.187 175.395" fill="white"/>
<defs>
<linearGradient id="paint0_linear" x1="199.95" y1="43.3384" x2="199.95" y2="88.1461" gradientUnits="userSpaceOnUse">
<stop stop-color="#8F00FF"/>
<stop offset="1" stop-color="#571AFF"/>
</linearGradient>
<linearGradient id="paint1_linear" x1="218.616" y1="129.194" x2="218.616" y2="156.785" gradientUnits="userSpaceOnUse">
<stop stop-color="#8F00FF"/>
<stop offset="1" stop-color="#571AFF"/>
</linearGradient>
<linearGradient id="paint2_linear" x1="93.7875" y1="56.0264" x2="93.7875" y2="86.6021" gradientUnits="userSpaceOnUse">
<stop stop-color="#8F00FF"/>
<stop offset="1" stop-color="#571AFF"/>
</linearGradient>
<linearGradient id="paint3_linear" x1="101.17" y1="102.321" x2="101.17" y2="109.161" gradientUnits="userSpaceOnUse">
<stop stop-color="#8F00FF"/>
<stop offset="1" stop-color="#571AFF"/>
</linearGradient>
<linearGradient id="paint4_linear" x1="110.664" y1="138.363" x2="110.664" y2="184.134" gradientUnits="userSpaceOnUse">
<stop stop-color="#8F00FF"/>
<stop offset="1" stop-color="#571AFF"/>
</linearGradient>
<linearGradient id="paint5_linear" x1="179.326" y1="97.356" x2="179.326" y2="130.568" gradientUnits="userSpaceOnUse">
<stop stop-color="#8F00FF"/>
<stop offset="1" stop-color="#571AFF"/>
</linearGradient>
</defs>
</svg>

<svg width="280" height="192" fill="none" xmlns="http://www.w3.org/2000/svg"><path opacity=".1" d="M197.923 10.725c-10.108-.49-20.39-.407-30.15 2.006-9.761 2.414-19.043 7.381-24.598 15-3.18 4.361-5.078 9.469-8.782 13.48-6.425 6.957-16.927 9.347-26.619 11.745-22.76 5.609-45.646 13.712-62.155 28.893-2.37 2.176-4.68 4.66-5.217 7.668-.823 4.627 2.801 8.956 6.822 11.917 4.02 2.962 8.778 5.311 11.754 9.152 3.794 4.899 4.007 11.372 2.93 17.256-1.077 5.884-3.294 11.609-3.878 17.558-.145 1.467-.18 2.996.456 4.353.843 1.798 2.715 3.019 4.551 4.046a74.1 74.1 0 0 0 20.831 7.867c12.577 2.698 25.692 2.191 38.569 3.3 12.876 1.108 26.286 4.21 35.336 12.523 5.55 5.097 10.558 12.532 18.472 12.28 4.434-.141 8.351-2.854 12.775-3.156 4.979-.341 9.48 2.373 14.175 3.919 6.669 2.2 14.391 1.987 20.644-1.046 6.253-3.033 10.793-8.973 11.159-15.358.358-6.255-3.029-12.107-4.986-18.118-6.416-19.695 2.609-40.508 11.584-59.377 8.974-18.87 18.234-39.526 12.264-59.336-6.932-22.976-33.781-25.498-55.937-26.572Z" fill="#6C63FF"/><path d="m138.969 82.892 31.708-60.92h43.943" stroke="url(#a)" stroke-width="2" stroke-linejoin="round" stroke-dasharray="4 4"/><path d="m175.546 116.036 12.371 37.514h41.06" stroke="url(#b)" stroke-width="2" stroke-linejoin="round" stroke-dasharray="4 4"/><path d="M100.517 83.017 65.813 41.446" stroke="url(#c)" stroke-width="2" stroke-dasharray="4 4"/><path d="m116.747 108.359-44.07-9.3H36.416" stroke="url(#d)" stroke-width="2" stroke-linejoin="round" stroke-dasharray="4 4"/><path d="m122.925 116.536-63.23 62.231" stroke="url(#e)" stroke-width="2" stroke-dasharray="4 4"/><path d="M204.509 85.675H93.674v35.793h4.131v9.361l9.365-9.361h97.339V85.675Z" fill="#F4ED0F"/><path d="M200.477 81.519H91.406v35.793h4.131v9.361l9.365-9.361h95.575V81.519Z" fill="url(#f)"/><path d="M197.441 85.297H94.43v28.635h103.01V85.297Z" fill="#fff"/><path d="M159.444 90.713h-42.713v1.512h42.713v-1.512Z" fill="#571AFF"/><path d="M190.691 94.996h-73.96v1.637h73.96v-1.637Zm0 5.037h-73.96v1.638h73.96v-1.638Zm-46.241 4.995h-27.089v1.637h27.089v-1.637Z" fill="#E6E6E6"/><path d="M110.49 107.038a11.464 11.464 0 0 1-6.449-.393 11.437 11.437 0 0 1-5.196-3.832 7.436 7.436 0 0 1 1.782-1.182 7.05 7.05 0 0 1 3.162-.682 6.817 6.817 0 0 1 3.095.815 6.904 6.904 0 0 1 2.392 2.146 7.229 7.229 0 0 1 1.201 3.036l.013.092Z" fill="#F4ED0F"/><path d="M108.163 101.215c1.601 0 2.898-1.326 2.898-2.96 0-1.635-1.297-2.96-2.898-2.96-1.6 0-2.898 1.325-2.898 2.96 0 1.634 1.298 2.96 2.898 2.96Z" fill="#2F2E41"/><path d="M105.389 105.736a7.039 7.039 0 0 1-4.621-1.735 7.122 7.122 0 0 1-1.31-9.196 7.06 7.06 0 0 1 3.951-2.968 7.021 7.021 0 0 1 4.919.358 7.07 7.07 0 0 1 3.484 3.509 7.126 7.126 0 0 1 .347 4.946 7.093 7.093 0 0 1-2.961 3.965 7.02 7.02 0 0 1-3.809 1.121Zm0-14.032c-1.365 0-2.7.407-3.835 1.17a6.93 6.93 0 0 0-2.542 3.113 6.971 6.971 0 0 0-.393 4.008 6.947 6.947 0 0 0 1.889 3.552 6.887 6.887 0 0 0 3.534 1.899 6.868 6.868 0 0 0 3.988-.395 6.906 6.906 0 0 0 3.097-2.555 6.96 6.96 0 0 0-.86-8.758 6.892 6.892 0 0 0-4.878-2.034Z" fill="#3F3D56"/><path d="M187.205 0h54.773c.978.824 1.419 1.389 1.419 3.552h-.054l-.07 30.81a3.219 3.219 0 0 1-3.235 3.214l-25.738-.058-24.463-.053h-1.271a3.23 3.23 0 0 1-2.976-1.997 3.222 3.222 0 0 1-.242-1.233V32.92l.066-29.55h.029c.008-2.159.784-2.546 1.762-3.37Z" fill="#777"/><path opacity=".2" d="m188.328 3.89 51.976.117-.065 28.636a1.745 1.745 0 0 1-.509 1.221 1.726 1.726 0 0 1-1.222.504l-48.328-.11a1.91 1.91 0 0 1-1.9-1.911l.065-28.458h-.017Z" fill="#fff"/><path d="m188.302 3.909-.058 26.248a4.028 4.028 0 0 0 2.486 3.731 4.04 4.04 0 0 0 1.545.31l43.944.1" fill="#F5F5F5"/><path d="m240.249 3.909-.058 26.35a4.05 4.05 0 0 1-2.497 3.734 4.022 4.022 0 0 1-1.544.305l-43.877-.1" fill="#fff"/><path d="M43.734 32.145h33.63c.6.506.871.852.871 2.177h-.033l-.043 18.886a1.968 1.968 0 0 1-.584 1.395 1.98 1.98 0 0 1-1.402.575l-15.803-.035-15.02-.033h-.78a1.986 1.986 0 0 1-1.827-1.224 1.972 1.972 0 0 1-.149-.756v-.806l.04-18.113h.019c.005-1.323.481-1.56 1.081-2.066Z" fill="#777"/><path opacity=".2" d="m44.424 34.53 31.912.072-.04 17.552a1.06 1.06 0 0 1-1.063 1.057l-29.672-.067a1.17 1.17 0 0 1-1.167-1.171l.04-17.444h-.01Z" fill="#fff"/><path d="m44.408 34.541-.035 16.09a2.465 2.465 0 0 0 1.526 2.287c.3.124.623.19.948.19l26.982.06" fill="#F5F5F5"/><path d="m76.302 34.541-.035 16.153a2.485 2.485 0 0 1-1.533 2.288 2.488 2.488 0 0 1-.948.187l-26.94-.061" fill="#fff"/><path d="M57.668 147.932h45.055c.805.677 1.168 1.14 1.168 2.915h-.044l-.058 25.283a2.638 2.638 0 0 1-1.645 2.439 2.657 2.657 0 0 1-1.016.198l-21.172-.047-20.123-.044h-1.045a2.66 2.66 0 0 1-2.448-1.638 2.642 2.642 0 0 1-.2-1.013v-1.078l.055-24.249h.024c.006-1.772.645-2.089 1.45-2.766Z" fill="#777"/><path opacity=".2" d="m58.592 151.124 42.754.097-.053 23.498a1.418 1.418 0 0 1-1.424 1.416l-39.753-.091a1.563 1.563 0 0 1-1.563-1.568l.053-23.352h-.014Z" fill="#fff"/><path d="m58.57 151.14-.047 21.54a3.3 3.3 0 0 0 .968 2.342 3.34 3.34 0 0 0 2.347.974l36.149.081" fill="#F5F5F5"/><path d="m101.301 151.14-.047 21.624a3.32 3.32 0 0 1-3.325 3.313l-36.092-.082" fill="#fff"/><path d="M19.89 90.632h26.268c.469.396.68.667.68 1.705h-.025l-.034 14.791a1.551 1.551 0 0 1-.959 1.427 1.538 1.538 0 0 1-.592.116l-12.343-.028-11.732-.025h-.61a1.543 1.543 0 0 1-1.093-.456 1.547 1.547 0 0 1-.45-1.095v-.631l.032-14.186h.014c.003-1.036.376-1.222.845-1.618Z" fill="#777"/><path opacity=".2" d="m20.43 92.499 24.925.057-.031 13.747a.827.827 0 0 1-.83.828l-23.177-.053a.91.91 0 0 1-.91-.917l.03-13.662h-.008Z" fill="#fff"/><path d="m20.417 92.508-.028 12.602a1.933 1.933 0 0 0 1.192 1.791c.235.097.487.148.741.149l21.075.047" fill="#F5F5F5"/><path d="m45.329 92.508-.028 12.651a1.953 1.953 0 0 1-.569 1.372 1.933 1.933 0 0 1-1.369.566l-21.042-.048" fill="#fff"/><path d="M204.118 141.254h54.773c.978.822 1.42 1.386 1.42 3.545h-.054l-.07 30.76a3.21 3.21 0 0 1-.951 2.272 3.23 3.23 0 0 1-2.284.936l-25.738-.057-24.464-.054h-1.27a3.23 3.23 0 0 1-2.976-1.993 3.214 3.214 0 0 1-.243-1.232v-1.312l.066-29.501h.029c.008-2.155.784-2.542 1.762-3.364Z" fill="#777"/><path opacity=".2" d="m205.242 145.136 51.975.118-.065 28.588a1.728 1.728 0 0 1-1.069 1.592c-.21.087-.435.131-.661.13l-48.328-.109a1.907 1.907 0 0 1-1.9-1.908l.064-28.411h-.016Z" fill="#fff"/><path d="m205.215 145.156-.058 26.205a4.014 4.014 0 0 0 1.177 2.849 4.052 4.052 0 0 0 2.854 1.185l43.945.099" fill="#F5F5F5"/><path d="m257.163 145.156-.058 26.307a4.032 4.032 0 0 1-1.187 2.854 4.042 4.042 0 0 1-2.854 1.177l-43.877-.099" fill="#fff"/><defs><linearGradient id="a" x1="199.95" y1="43.338" x2="199.95" y2="88.146" gradientUnits="userSpaceOnUse"><stop stop-color="#8F00FF"/><stop offset="1" stop-color="#571AFF"/></linearGradient><linearGradient id="b" x1="218.616" y1="129.194" x2="218.616" y2="156.785" gradientUnits="userSpaceOnUse"><stop stop-color="#8F00FF"/><stop offset="1" stop-color="#571AFF"/></linearGradient><linearGradient id="c" x1="93.787" y1="56.026" x2="93.787" y2="86.602" gradientUnits="userSpaceOnUse"><stop stop-color="#8F00FF"/><stop offset="1" stop-color="#571AFF"/></linearGradient><linearGradient id="d" x1="101.17" y1="102.321" x2="101.17" y2="109.161" gradientUnits="userSpaceOnUse"><stop stop-color="#8F00FF"/><stop offset="1" stop-color="#571AFF"/></linearGradient><linearGradient id="e" x1="110.664" y1="138.363" x2="110.664" y2="184.134" gradientUnits="userSpaceOnUse"><stop stop-color="#8F00FF"/><stop offset="1" stop-color="#571AFF"/></linearGradient><linearGradient id="f" x1="179.326" y1="97.356" x2="179.326" y2="130.568" gradientUnits="userSpaceOnUse"><stop stop-color="#8F00FF"/><stop offset="1" stop-color="#571AFF"/></linearGradient></defs></svg>
